(Generated by PartKam Version 0.05)

G20 G90 G40

(pocket 1)
G0 Z0.2
T0 M6
G17
M3
G0 X1.1763 Y3.0946
G1 Z-0.0625 F10
G3 X1.2102 Y3.3522 I-1.0702 J0.272 F40
G3 X1.2117 Y3.5347 I-18.138 J0.2353
G3 X1.212 Y3.748 I-73.1868 J0.2133
G3 X1.212 Y3.8028 I-73.1871 J0
G3 X1.1965 Y3.7935 I2.8855 J-4.7895
G3 X1.1961 Y3.7443 I11.2781 J-0.1153
G3 X1.1954 Y3.5208 I45.7455 J-0.2679
G2 X1.1952 Y3.4074 I-91.4469 J0.0886
G2 X1.195 Y3.3503 I-23.02 J0.0508
G2 X1.1645 Y3.1083 I-1.0143 J0.0047
G2 X1.0797 Y2.8991 I-0.7867 J0.1973
G2 X0.94 Y2.721 I-0.7007 J0.4059
G2 X0.7447 Y2.5744 I-0.6985 J0.727
G2 X0.7278 Y2.5647 I-2.6022 J4.521
G2 X0.695 Y2.546 I-10.0328 J17.5823
G3 X0.6057 Y2.4943 I3.2326 J-5.6897
G3 X0.6037 Y2.4732 I5.5392 J-0.5332
G3 X0.6338 Y2.4906 I-14.1272 J24.5637
G3 X0.7616 Y2.5662 I-3.368 J5.8395
G3 X0.9659 Y2.7259 I-0.5691 J0.9382
G3 X1.0962 Y2.896 I-0.5606 J0.5642
G3 X1.1763 Y3.0946 I-0.6921 J0.3948
G1 X1.2248 Y3.0823 F40
G3 X1.2602 Y3.3516 I-1.1187 J0.2843 F40
G3 X1.2617 Y3.5345 I-18.188 J0.236
G3 X1.262 Y3.748 I-73.2368 J0.2135
G3 X1.2618 Y3.891 I-73.2371 J0
G3 X1.1932 Y3.8499 I12.425 J-20.8473
G3 X1.1469 Y3.8218 I2.9043 J-4.8366
G3 X1.1461 Y3.7446 I11.3278 J-0.1435
G3 X1.1454 Y3.5208 I45.7955 J-0.2681
G2 X1.1452 Y3.4075 I-91.3969 J0.0885
G2 X1.145 Y3.3505 I-22.97 J0.0507
G2 X1.116 Y3.1204 I-0.9643 J0.0045
G2 X1.0364 Y2.9241 I-0.7382 J0.1851
G2 X0.9054 Y2.7571 I-0.6575 J0.3808
G2 X0.7198 Y2.6177 I-0.6639 J0.6909
G2 X0.703 Y2.6081 I-2.5772 J4.4777
G2 X0.6703 Y2.5895 I-10.008 J17.5389
G3 X0.5768 Y2.5353 I3.2573 J-5.7331
G3 X0.5584 Y2.5243 I0.7737 J-1.3112
G3 X0.5519 Y2.4556 I5.5864 J-0.5632
G3 X0.5455 Y2.3823 I24.2963 J-2.148
G3 X0.6588 Y2.4473 I-14.0691 J24.6547
G3 X0.7875 Y2.5234 I-3.393 J5.8828
G3 X1.0011 Y2.6904 I-0.5951 J0.981
G3 X1.1396 Y2.8713 I-0.5958 J0.5997
G3 X1.2248 Y3.0823 I-0.7356 J0.4196
G1 X1.2732 Y3.07 F40
G3 X1.3102 Y3.3509 I-1.1671 J0.2966 F40
G3 X1.3117 Y3.5344 I-18.238 J0.2366
G3 X1.312 Y3.748 I-73.2868 J0.2136
G3 X1.3118 Y3.903 I-73.2871 J0
G2 X1.3117 Y3.9787 I312.0524 J0.6599
G3 X1.1675 Y3.8928 I12.3752 J-20.935
G3 X1.0972 Y3.8499 I2.93 J-4.8795
G3 X1.0961 Y3.7449 I11.3774 J-0.1717
G3 X1.0954 Y3.5209 I45.8455 J-0.2684
G2 X1.0952 Y3.4076 I-91.3469 J0.0885
G2 X1.095 Y3.3508 I-22.92 J0.0506
G2 X1.0675 Y3.1326 I-0.9143 J0.0042
G2 X0.9931 Y2.9492 I-0.6897 J0.173
G2 X0.8707 Y2.7931 I-0.6142 J0.3557
G2 X0.6948 Y2.661 I-0.6292 J0.6549
G2 X0.6783 Y2.6515 I-2.5523 J4.4344
G2 X0.6456 Y2.633 I-9.9832 J17.4954
G3 X0.5514 Y2.5784 I3.282 J-5.7766
G3 X0.5111 Y2.5538 I0.7991 J-1.3543
G3 X0.5021 Y2.46 I5.6337 J-0.5927
G3 X0.4878 Y2.2919 I24.3461 J-2.1524
G3 X0.6838 Y2.404 I-14.0114 J24.745
G3 X0.8135 Y2.4807 I-3.418 J5.9262
G3 X1.0363 Y2.655 I-0.621 J1.0237
G3 X1.183 Y2.8465 I-0.6311 J0.6352
G3 X1.2732 Y3.07 I-0.779 J0.4444
G1 X1.3217 Y3.0577 F40
G3 X1.3602 Y3.3503 I-1.2156 J0.3089 F40
G3 X1.3617 Y3.5342 I-18.288 J0.2373
G3 X1.362 Y3.748 I-73.3368 J0.2138
G3 X1.3618 Y3.9031 I-73.3371 J0
G2 X1.3617 Y3.9899 I312.0024 J0.6598
G2 X1.3616 Y4.0257 I78.0424 J0.1444
G1 X1.361 Y4.0528
G2 X1.361 Y4.0541 I0.0625 J0.0013
G2 X1.3612 Y4.059 I0.0625 J0
G3 X1.3613 Y4.0608 I-0.0232 J0.0018
G3 X1.3611 Y4.0637 I-0.0233 J0
G2 X1.36 Y4.0632 I-0.0273 J0.0562
G1 X1.3434 Y4.0554
G1 X1.343 Y4.0552
G3 X1.1417 Y3.9356 I12.3439 J-21.0115
G3 X1.052 Y3.8806 I2.9557 J-4.9223
G3 X1.0512 Y3.8786 I0.0287 J-0.0121
G3 X1.0483 Y3.8674 I0.0711 J-0.0242
G3 X1.0473 Y3.8569 I0.0661 J-0.0116
G3 X1.0461 Y3.7452 I11.4273 J-0.1786
G3 X1.0454 Y3.5209 I45.8955 J-0.2687
G2 X1.0452 Y3.4077 I-91.2969 J0.0884
G2 X1.045 Y3.351 I-22.87 J0.0505
G2 X1.019 Y3.1448 I-0.8643 J0.004
G2 X0.9499 Y2.9742 I-0.6412 J0.1608
G2 X0.8361 Y2.8292 I-0.5709 J0.3307
G2 X0.6699 Y2.7044 I-0.5946 J0.6188
G2 X0.6535 Y2.695 I-2.5274 J4.391
G2 X0.6209 Y2.6764 I-9.9584 J17.452
G3 X0.526 Y2.6215 I3.3067 J-5.8201
G3 X0.4806 Y2.5937 I0.8245 J-1.3974
G3 X0.4718 Y2.5872 I0.0427 J-0.0673
G3 X0.4649 Y2.5805 I0.0436 J-0.0515
G3 X0.4635 Y2.5788 I0.0206 J-0.0183
G3 X0.4523 Y2.4644 I5.6813 J-0.6177
G3 X0.4314 Y2.2136 I24.3959 J-2.1568
G2 X0.4305 Y2.2068 I-0.0623 J0.0049
G3 X0.4299 Y2.2011 I0.0328 J-0.0062
G3 X0.4331 Y2.2031 I-0.0126 J0.0232
G2 X0.4398 Y2.2074 I0.0373 J-0.0501
G3 X0.7088 Y2.3607 I-13.9633 J24.8295
G3 X0.8394 Y2.4379 I-3.443 J5.9695
G3 X1.0716 Y2.6195 I-0.6469 J1.0665
G3 X1.2264 Y2.8217 I-0.6663 J0.6707
G3 X1.3217 Y3.0577 I-0.8224 J0.4692

(pocket 2)
G0 Z0.2
G0 X0.5381 Y1.6538
G1 Z-0.0625 F10
G3 X0.9393 Y1.8862 I-22.4191 J39.1813 F40
G3 X1.133 Y2.0024 I-5.4935 J9.376
G3 X1.4186 Y2.2191 I-0.9545 J1.5542
G3 X1.6221 Y2.4544 I-0.9617 J1.0372
G3 X1.77 Y2.7356 I-1.1073 J0.762
G3 X1.8546 Y3.0627 I-1.4004 J0.5365
G3 X1.8713 Y3.2093 I-2.7656 J0.39
G3 X1.8839 Y3.3997 I-4.5328 J0.3966
G3 X1.888 Y3.5157 I-5.5796 J0.253
G3 X1.8927 Y3.7591 I-23.8785 J0.5861
G2 X1.894 Y3.8397 I38.9963 J-0.5596
G2 X1.8711 Y3.8355 I-5.9396 J32.0418
G2 X1.8713 Y3.8082 I-22.5027 J-0.1
G2 X1.8714 Y3.7026 I-32.6529 J-0.1055
G2 X1.8714 Y3.6382 I-32.6531 J0
G2 X1.8709 Y3.516 I-39.963 J0.0788
G2 X1.8698 Y3.3283 I-94.6112 J0.476
G2 X1.856 Y3.1273 I-1.6302 J0.0113
G2 X1.8181 Y2.9358 I-1.5016 J0.1972
G2 X1.7549 Y2.7486 I-1.4505 J0.3852
G2 X1.6665 Y2.5681 I-1.4449 J0.5962
G2 X1.5531 Y2.3971 I-1.3595 J0.7783
G2 X1.4206 Y2.2455 I-1.1934 J0.909
G2 X1.2709 Y2.1143 I-1.0706 J1.0705
G2 X1.1002 Y1.9997 I-0.9942 J1.2973
G2 X0.9165 Y1.8928 I-68.404 J117.263
G2 X0.5469 Y1.6782 I-276.1082 J475.0319
G3 X0.466 Y1.6312 I916.6015 J-1579.7989
G2 X0.4718 Y1.6159 I-69.7089 J-26.3302
G2 X0.5381 Y1.6538 I66.0052 J-115.2017
G1 X0.5629 Y1.6104 F40
G3 X0.9646 Y1.8431 I-22.444 J39.2247 F40
G3 X1.1592 Y1.9598 I-5.5187 J9.4192
G3 X1.4526 Y2.1825 I-0.9807 J1.5968
G3 X1.6633 Y2.4261 I-0.9957 J1.0738
G3 X1.8167 Y2.7177 I-1.1484 J0.7904
G3 X1.9041 Y3.0557 I-1.4471 J0.5544
G3 X1.9211 Y3.2049 I-2.8151 J0.397
G3 X1.9339 Y3.3975 I-4.5826 J0.4009
G3 X1.938 Y3.5145 I-5.6296 J0.2553
G3 X1.9427 Y3.7584 I-23.9285 J0.5873
G2 X1.945 Y3.9001 I38.9463 J-0.5589
G2 X1.8209 Y3.8771 I-5.9906 J31.9814
G2 X1.8213 Y3.808 I-22.4525 J-0.1416
G2 X1.8214 Y3.7026 I-32.6029 J-0.1054
G2 X1.8214 Y3.6383 I-32.6031 J0
G2 X1.8209 Y3.5163 I-39.913 J0.0787
G2 X1.8198 Y3.3286 I-94.5612 J0.4757
G2 X1.8064 Y3.1339 I-1.5802 J0.011
G2 X1.7698 Y2.9486 I-1.452 J0.1907
G2 X1.7087 Y2.7677 I-1.4022 J0.3724
G2 X1.6231 Y2.593 I-1.3987 J0.5771
G2 X1.5134 Y2.4274 I-1.3161 J0.7535
G2 X1.3852 Y2.2808 I-1.1536 J0.8787
G2 X1.2405 Y2.154 I-1.0352 J1.0351
G2 X1.075 Y2.0429 I-0.9638 J1.2576
G2 X0.8914 Y1.936 I-68.3788 J117.2198
G2 X0.5218 Y1.7214 I-276.0831 J474.9886
G3 X0.4046 Y1.6534 I916.6266 J-1579.8421
G1 X0.4042 Y1.6532
G2 X0.4287 Y1.5884 I-69.6471 J-26.3521
G3 X0.4457 Y1.5433 I72.4398 J27.3318
G2 X0.5629 Y1.6104 I66.0312 J-115.1292
G1 X0.5877 Y1.567 F40
G3 X0.9899 Y1.7999 I-22.4688 J39.2681 F40
G3 X1.1853 Y1.9172 I-5.544 J9.4623
G3 X1.4866 Y2.1458 I-1.0069 J1.6394
G3 X1.7045 Y2.3978 I-1.0297 J1.1105
G3 X1.8634 Y2.6998 I-1.1896 J0.8187
G3 X1.9536 Y3.0487 I-1.4938 J0.5723
G3 X1.9709 Y3.2005 I-2.8646 J0.4039
G3 X1.9838 Y3.3952 I-4.6324 J0.4053
G3 X1.988 Y3.5132 I-5.6795 J0.2576
G3 X1.9927 Y3.7576 I-23.9784 J0.5885
G2 X1.9953 Y3.9185 I38.8963 J-0.5581
G2 X1.9962 Y3.9607 I10.1319 J-0.1873
G2 X1.951 Y3.9521 I-1.9146 J9.9452
G2 X1.7726 Y3.9191 I-5.9966 J31.9294
G3 X1.7706 Y3.9188 I38.5284 J-211.6553
G2 X1.7713 Y3.8078 I-22.4022 J-0.1832
G2 X1.7714 Y3.7026 I-32.5529 J-0.1052
G2 X1.7714 Y3.6384 I-32.5531 J0
G2 X1.7709 Y3.5165 I-39.863 J0.0787
G2 X1.7698 Y3.329 I-94.5112 J0.4755
G2 X1.7568 Y3.1404 I-1.5302 J0.0106
G2 X1.7215 Y2.9615 I-1.4024 J0.1842
G2 X1.6625 Y2.7867 I-1.3539 J0.3596
G2 X1.5797 Y2.6178 I-1.3525 J0.5581
G2 X1.4736 Y2.4577 I-1.2728 J0.7286
G2 X1.3499 Y2.3162 I-1.1138 J0.8484
G2 X1.2101 Y2.1936 I-0.9999 J0.9998
G2 X1.0498 Y2.0861 I-0.9333 J1.2179
G2 X0.8663 Y1.9792 I-68.3536 J117.1766
G2 X0.4968 Y1.7647 I-276.058 J474.9454
G3 X0.3795 Y1.6966 I916.6517 J-1579.8854
G3 X0.3425 Y1.6751 I235.5645 J-405.9353
G2 X0.3459 Y1.666 I-17.3049 J-6.5667
G2 X0.3819 Y1.5708 I-69.5888 J-26.365
G3 X0.4196 Y1.471 I72.4866 J27.3495
G1 X0.4197 Y1.4708
G2 X0.4418 Y1.4834 I17.042 J-29.6455
G2 X0.5877 Y1.567 I66.0352 J-115.0693
G1 X0.6126 Y1.5236 F40
G3 X1.0152 Y1.7568 I-22.4936 J39.3115 F40
G3 X1.2115 Y1.8746 I-5.5693 J9.5055
G3 X1.5206 Y2.1092 I-1.033 J1.6821
G3 X1.7456 Y2.3694 I-1.0637 J1.1471
G3 X1.91 Y2.6819 I-1.2308 J0.8471
G3 X2.0031 Y3.0418 I-1.5404 J0.5902
G3 X2.0207 Y3.1962 I-2.9141 J0.4109
G3 X2.0338 Y3.3929 I-4.6822 J0.4097
G3 X2.0379 Y3.512 I-5.7295 J0.2598
G3 X2.0427 Y3.7569 I-24.0284 J0.5898
G2 X2.0453 Y3.9176 I38.8463 J-0.5574
G2 X2.0472 Y3.9996 I10.0819 J-0.1864
G3 X2.0473 Y4.0085 I-0.3399 J0.0089
G1 X2.0473 Y4.0085
G3 X2.0473 Y4.022 I-2.006 J-0.0007
G1 X2.0467 Y4.0218
G2 X2.0412 Y4.0204 I-0.0177 J0.0599
G2 X1.9418 Y4.0013 I-1.9595 J9.8855
G2 X1.7637 Y3.9683 I-5.9874 J31.8803
G3 X1.7388 Y3.9638 I38.5374 J-211.7045
G3 X1.7264 Y3.9615 I9.5794 J-52.5894
G3 X1.7211 Y3.9602 I0.0078 J-0.0427
G3 X1.7204 Y3.9489 I0.084 J-0.0113
G1 X1.7204 Y3.9481
G2 X1.7213 Y3.8077 I-22.3519 J-0.2126
G2 X1.7214 Y3.7026 I-32.5029 J-0.1051
G2 X1.7214 Y3.6385 I-32.5031 J0
G2 X1.7209 Y3.5168 I-39.813 J0.0786
G2 X1.7198 Y3.3293 I-94.4612 J0.4752
G2 X1.7072 Y3.1469 I-1.4802 J0.0103
G2 X1.6731 Y2.9743 I-1.3529 J0.1777
G2 X1.6163 Y2.8058 I-1.3055 J0.3467
G2 X1.5363 Y2.6426 I-1.3062 J0.539
G2 X1.4338 Y2.488 I-1.2294 J0.7038
G2 X1.3145 Y2.3515 I-1.074 J0.8181
G2 X1.1797 Y2.2333 I-0.9645 J0.9644
G2 X1.0246 Y2.1293 I-0.9029 J1.1782
G2 X0.8411 Y2.0225 I-68.3284 J117.1334
G2 X0.4717 Y1.8079 I-276.0329 J474.9022
G3 X0.3544 Y1.7399 I916.6768 J-1579.9286
G3 X0.2959 Y1.7059 I235.5896 J-405.9785
G1 X0.2808 Y1.6965
G1 X0.2811 Y1.6957
G2 X0.2992 Y1.6483 I-17.2436 J-6.5873
G2 X0.3352 Y1.5531 I-69.542 J-26.3472
G3 X0.3729 Y1.4533 I72.5334 J27.3671
G3 X0.3921 Y1.4028 I20.523 J7.7757
G2 X0.394 Y1.3983 I-0.0564 J-0.0269
G2 X0.4667 Y1.44 I17.0677 J-29.573
G2 X0.6126 Y1.5236 I66.0103 J-115.0259

(pocket 3)
G0 Z0.2
G0 X3.5637 Y1.0936
G1 Z-0.0625 F10
G3 X3.1622 Y1.3247 I-22.7114 J-38.988 F40
G3 X2.9649 Y1.4342 I-5.3706 J-9.441
G3 X2.6344 Y1.5732 I-0.8687 J-1.6038
G3 X2.3289 Y1.6318 I-0.4174 J-1.3515
G3 X2.0115 Y1.6193 I-0.1063 J-1.34
G3 X1.6859 Y1.5289 I0.2355 J-1.481
G3 X1.5506 Y1.4702 I1.0448 J-2.5895
G3 X1.3793 Y1.3859 I1.9226 J-4.1233
G3 X1.2769 Y1.3314 I2.5704 J-4.9582
G3 X1.0638 Y1.2139 I11.4306 J-20.9713
G2 X0.9933 Y1.1746 I-19.0071 J34.0413
G2 X1.0083 Y1.157 I-24.9921 J-21.3461
G2 X1.0318 Y1.1707 I11.2744 J-19.3282
G2 X1.1791 Y1.2558 I16.398 J-28.1903
G2 X1.2843 Y1.3161 I19.9041 J-34.6323
G2 X1.4482 Y1.4094 I48.0056 J-84.1181
G2 X1.6292 Y1.4979 I0.8054 J-1.4178
G2 X1.814 Y1.5609 I0.58 J-1.3992
G2 X2.0077 Y1.5998 I0.3917 J-1.449
G2 X2.2082 Y1.6134 I0.2062 J-1.5499
G2 X2.413 Y1.6008 I0.0057 J-1.5662
G2 X2.6106 Y1.5618 I-0.1906 J-1.4881
G2 X2.799 Y1.4978 I-0.3919 J-1.4627
G2 X2.9836 Y1.4072 I-0.6266 J-1.5102
G2 X3.1685 Y1.3013 I-70.7014 J-123.7044
G2 X3.5401 Y1.088 I-286.8981 J-500.24
G3 X3.6199 Y1.0422 I965.0134 J1679.7193
G2 X3.6302 Y1.0549 I56.6561 J-46.385
G2 X3.5637 Y1.0936 I66.5147 J114.3367
G1 X3.5889 Y1.1368 F40
G3 X3.1869 Y1.3682 I-22.7366 J-39.0312 F40
G3 X2.9887 Y1.4782 I-5.3953 J-9.4845
G3 X2.6491 Y1.621 I-0.8925 J-1.6477
G3 X2.3328 Y1.6816 I-0.4321 J-1.3993
G3 X2.0036 Y1.6687 I-0.1102 J-1.3898
G3 X1.6671 Y1.5753 I0.2434 J-1.5304
G3 X1.5295 Y1.5155 I1.0635 J-2.6359
G3 X1.3563 Y1.4303 I1.9437 J-4.1686
G3 X1.253 Y1.3753 I2.5934 J-5.0026
G3 X1.0394 Y1.2575 I11.4546 J-21.0152
G2 X0.9155 Y1.1886 I-18.9828 J33.9977
G2 X0.9974 Y1.0927 I-24.9143 J-21.3601
G2 X1.0569 Y1.1274 I11.2853 J-19.2639
G2 X1.204 Y1.2125 I16.3728 J-28.1471
G2 X1.3091 Y1.2727 I19.8792 J-34.5889
G2 X1.4729 Y1.366 I47.9808 J-84.0746
G2 X1.6483 Y1.4517 I0.7807 J-1.3743
G2 X1.827 Y1.5126 I0.5609 J-1.353
G2 X2.0143 Y1.5502 I0.3786 J-1.4007
G2 X2.2084 Y1.5634 I0.1996 J-1.5003
G2 X2.4066 Y1.5512 I0.0055 J-1.5162
G2 X2.5976 Y1.5135 I-0.1843 J-1.4385
G2 X2.7799 Y1.4516 I-0.3789 J-1.4144
G2 X2.9588 Y1.3638 I-0.6075 J-1.4641
G2 X3.1437 Y1.258 I-70.6766 J-123.661
G2 X3.5152 Y1.0447 I-286.8732 J-500.1966
G3 X3.6317 Y0.9778 I965.0383 J1679.7627
G2 X3.676 Y1.0319 I56.6442 J-46.3205
G3 X3.7061 Y1.0686 I-59.4188 J48.6842
G2 X3.5889 Y1.1368 I66.4389 J114.323
G1 X3.614 Y1.18 F40
G3 X3.2116 Y1.4116 I-22.7617 J-39.0744 F40
G3 X3.0125 Y1.5222 I-5.42 J-9.5279
G3 X2.6639 Y1.6687 I-0.9163 J-1.6917
G3 X2.3368 Y1.7314 I-0.4469 J-1.447
G3 X1.9958 Y1.718 I-0.1142 J-1.4397
G3 X1.6484 Y1.6217 I0.2512 J-1.5797
G3 X1.5083 Y1.5608 I1.0822 J-2.6823
G3 X1.3333 Y1.4747 I1.9649 J-4.2139
G3 X1.229 Y1.4192 I2.6164 J-5.047
G3 X1.015 Y1.3012 I11.4785 J-21.0591
G2 X0.8743 Y1.223 I-18.9584 J33.954
G2 X0.8374 Y1.2027 I-4.9021 J8.8655
G2 X0.867 Y1.1683 I-7.718 J-6.6833
G2 X0.9841 Y1.0311 I-24.8658 J-21.3398
G3 X0.9865 Y1.0283 I158.0002 J134.0917
G2 X1.082 Y1.0842 I11.2962 J-19.1995
G2 X1.2289 Y1.1691 I16.3477 J-28.1039
G2 X1.3339 Y1.2293 I19.8543 J-34.5456
G2 X1.4976 Y1.3225 I47.9561 J-84.0312
G2 X1.6675 Y1.4055 I0.756 J-1.3309
G2 X1.8401 Y1.4644 I0.5417 J-1.3068
G2 X2.0209 Y1.5007 I0.3656 J-1.3524
G2 X2.2086 Y1.5134 I0.193 J-1.4507
G2 X2.4002 Y1.5016 I0.0054 J-1.4662
G2 X2.5847 Y1.4652 I-0.1779 J-1.3889
G2 X2.7607 Y1.4054 I-0.366 J-1.3661
G2 X2.934 Y1.3204 I-0.5883 J-1.4179
G2 X3.1188 Y1.2146 I-70.6518 J-123.6176
G2 X3.4903 Y1.0013 I-286.8484 J-500.1532
G3 X3.6069 Y0.9344 I965.0632 J1679.806
G3 X3.6436 Y0.9133 I247.8908 J431.5524
G2 X3.6499 Y0.921 I14.0855 J-11.4951
G2 X3.7147 Y1.0002 I56.626 J-46.2637
G3 X3.7819 Y1.0823 I-59.4575 J48.7159
G1 X3.7819 Y1.0824
G2 X3.7598 Y1.0952 I17.0897 J29.4745
G2 X3.614 Y1.18 I66.3852 J114.2963
G1 X3.6392 Y1.2232 F40
G3 X3.2364 Y1.4551 I-22.7869 J-39.1176 F40
G3 X3.0364 Y1.5661 I-5.4447 J-9.5714
G3 X2.6787 Y1.7165 I-0.9402 J-1.7357
G3 X2.3407 Y1.7813 I-0.4616 J-1.4948
G3 X1.9879 Y1.7674 I-0.1182 J-1.4895
G3 X1.6297 Y1.6681 I0.2591 J-1.6291
G3 X1.4872 Y1.6061 I1.1009 J-2.7286
G3 X1.3103 Y1.5191 I1.986 J-4.2593
G3 X1.2051 Y1.4631 I2.6394 J-5.0914
G3 X0.9906 Y1.3448 I11.5024 J-21.103
G2 X0.8501 Y1.2667 I-18.934 J33.9104
G2 X0.7782 Y1.2273 I-4.8779 J8.8217
G3 X0.7703 Y1.2229 I0.1618 J-0.298
G3 X0.7588 Y1.2162 I1.0027 J-1.7351
G1 X0.759 Y1.2161
G2 X0.7631 Y1.2118 I-0.0428 J-0.0455
G2 X0.829 Y1.1357 I-7.6438 J-6.6924
G2 X0.946 Y0.9987 I-24.8279 J-21.3073
G3 X0.963 Y0.9786 I158.0383 J134.1241
G3 X0.9715 Y0.9686 I39.2459 J33.3158
G3 X0.9753 Y0.9647 I0.0331 J0.0281
G3 X0.9862 Y0.9701 I-0.0322 J0.0784
G2 X1.1072 Y1.041 I11.2965 J-19.1414
G2 X1.2538 Y1.1258 I16.3226 J-28.0607
G2 X1.3587 Y1.1858 I19.8294 J-34.5022
G2 X1.5223 Y1.279 I47.9313 J-83.9878
G2 X1.6866 Y1.3594 I0.7313 J-1.2874
G2 X1.8531 Y1.4161 I0.5226 J-1.2606
G2 X2.0275 Y1.4511 I0.3525 J-1.3042
G2 X2.2088 Y1.4634 I0.1864 J-1.4012
G2 X2.3939 Y1.452 I0.0052 J-1.4162
G2 X2.5718 Y1.4169 I-0.1715 J-1.3393
G2 X2.7415 Y1.3592 I-0.3531 J-1.3178
G2 X2.9092 Y1.277 I-0.5692 J-1.3717
G2 X3.0939 Y1.1712 I-70.627 J-123.5742
G2 X3.4654 Y0.958 I-286.8235 J-500.1098
G3 X3.582 Y0.891 I965.0881 J1679.8494
G3 X3.6402 Y0.8575 I247.9157 J431.5958
G1 X3.6559 Y0.8492
G1 X3.6564 Y0.8498
G2 X3.6886 Y0.8894 I14.0727 J-11.4316
G2 X3.7534 Y0.9685 I56.5873 J-46.2321
G3 X3.8206 Y1.0507 I-59.4961 J48.7476
G3 X3.8546 Y1.0924 I-16.8535 J13.7699
G2 X3.8576 Y1.0964 I0.0513 J-0.0357
G2 X3.7849 Y1.1385 I17.014 J29.4606
G2 X3.6392 Y1.2232 I66.36 J114.2531

(pocket 4)
G0 Z0.2
G0 X1.5983 Y0.7361
G1 Z-0.0625 F10
G3 X1.3662 Y0.6024 I36.4242 J-63.5165 F40
G3 X1.382 Y0.5937 I2.7077 J4.8991
G3 X1.4247 Y0.6179 I-5.4869 J9.7328
G3 X1.6185 Y0.7289 I-22.4382 J39.3959
G2 X1.717 Y0.7856 I45.1311 J-78.339
G2 X1.7666 Y0.814 I11.3369 J-19.736
G2 X1.9914 Y0.9086 I0.5031 J-0.8808
G2 X2.215 Y0.9397 I0.2225 J-0.78
G2 X2.4391 Y0.9078 I-0.0011 J-0.8098
G2 X2.6637 Y0.812 I-0.2803 J-0.9684
G2 X2.6808 Y0.8021 I-2.545 J-4.3977
G2 X2.7139 Y0.7827 I-9.933 J-17.0109
G3 X2.8026 Y0.7316 I3.2875 J5.605
G3 X2.8219 Y0.7404 I-2.3057 J5.0579
G3 X2.7917 Y0.7579 I-14.2484 J-24.5846
G3 X2.6624 Y0.8307 I-3.3822 J-5.8522
G3 X2.4219 Y0.9277 I-0.5279 J-0.9619
G3 X2.2094 Y0.9555 I-0.2084 J-0.7676
G3 X1.9974 Y0.9256 I0.0041 J-0.7968
G3 X1.7573 Y0.8262 I0.2996 J-1.0627
G3 X1.5983 Y0.7361 I8.8671 J-15.8299
G1 X1.5734 Y0.7794 F40
G3 X1.265 Y0.6015 I36.4491 J-63.5599 F40
G3 X1.3341 Y0.563 I11.8702 J21.2329
G3 X1.3824 Y0.5366 I2.7398 J4.9385
G3 X1.4495 Y0.5745 I-5.4873 J9.79
G3 X1.6435 Y0.6856 I-22.463 J39.4393
G2 X1.7419 Y0.7422 I45.1061 J-78.2957
G2 X1.7914 Y0.7706 I11.312 J-19.6927
G2 X2.0052 Y0.8605 I0.4783 J-0.8374
G2 X2.215 Y0.8897 I0.2088 J-0.7319
G2 X2.4252 Y0.8598 I-0.0011 J-0.7598
G2 X2.6386 Y0.7687 I-0.2664 J-0.9204
G2 X2.6556 Y0.7589 I-2.5199 J-4.3544
G2 X2.6886 Y0.7396 I-9.9078 J-16.9677
G3 X2.7817 Y0.686 I3.3128 J5.6481
G3 X2.8003 Y0.6757 I0.7433 J1.3164
G3 X2.863 Y0.7044 I-2.3034 J5.1139
G3 X2.9297 Y0.7355 I-10.2871 J22.1088
G3 X2.8167 Y0.8012 I-14.3562 J-24.5798
G3 X2.6865 Y0.8746 I-3.4072 J-5.8955
G3 X2.435 Y0.976 I-0.552 J-1.0057
G3 X2.2092 Y1.0055 I-0.2214 J-0.8159
G3 X1.9838 Y0.9738 I0.0044 J-0.8468
G3 X1.7329 Y0.8698 I0.3131 J-1.1109
G3 X1.5734 Y0.7794 I8.8915 J-15.8735
G1 X1.5486 Y0.8228 F40
G3 X1.2286 Y0.6383 I36.474 J-63.6032 F40
G2 X1.1641 Y0.6008 I-158.3807 J272.988
G3 X1.3098 Y0.5193 I11.9711 J21.2336
G3 X1.3828 Y0.4795 I2.7641 J4.9822
G3 X1.4742 Y0.531 I-5.4877 J9.847
G3 X1.6684 Y0.6423 I-22.4877 J39.4828
G2 X1.7668 Y0.6989 I45.0812 J-78.2523
G2 X1.8162 Y0.7272 I11.2871 J-19.6493
G2 X2.0189 Y0.8125 I0.4535 J-0.794
G2 X2.2149 Y0.8397 I0.195 J-0.6838
G2 X2.4113 Y0.8117 I-0.001 J-0.7098
G2 X2.6136 Y0.7255 I-0.2525 J-0.8723
G2 X2.6303 Y0.7157 I-2.4949 J-4.3112
G2 X2.6633 Y0.6964 I-9.8825 J-16.9245
G3 X2.7571 Y0.6424 I3.3381 J5.6912
G3 X2.7983 Y0.62 I0.7679 J1.3599
G3 X2.8841 Y0.659 I-2.3014 J5.1695
G3 X3.0368 Y0.7307 I-10.3081 J22.1541
G3 X2.8417 Y0.8445 I-14.4633 J-24.5749
G3 X2.7105 Y0.9184 I-3.4322 J-5.9388
G3 X2.4481 Y1.0243 I-0.576 J-1.0496
G3 X2.2089 Y1.0555 I-0.2345 J-0.8641
G3 X1.9703 Y1.0219 I0.0047 J-0.8968
G3 X1.7085 Y0.9135 I0.3267 J-1.159
G3 X1.5486 Y0.8228 I8.916 J-15.9172
G1 X1.5237 Y0.8662 F40
G3 X1.2035 Y0.6815 I36.4988 J-63.6466 F40
G2 X1.129 Y0.6383 I-158.3556 J272.9448
G2 X1.098 Y0.6203 I-39.593 J68.2862
G1 X1.0752 Y0.6065
G2 X1.0698 Y0.6036 I-0.0324 J0.0535
G3 X1.0657 Y0.6011 I0.01 J-0.0209
G2 X1.0667 Y0.6005 I-0.0349 J-0.0518
G1 X1.0818 Y0.5899
G3 X1.2856 Y0.4756 I12.0533 J21.2445
G3 X1.3788 Y0.425 I2.7883 J5.0259
G3 X1.381 Y0.4253 I-0.0039 J0.0309
G3 X1.3921 Y0.4284 I-0.0146 J0.0737
G3 X1.4018 Y0.4328 I-0.023 J0.0631
G3 X1.499 Y0.4876 I-5.5066 J9.8937
G3 X1.6934 Y0.599 I-22.5125 J39.5262
G2 X1.7917 Y0.6555 I45.0562 J-78.209
G2 X1.841 Y0.6837 I11.2622 J-19.606
G2 X2.0326 Y0.7644 I0.4287 J-0.7506
G2 X2.2148 Y0.7897 I0.1813 J-0.6357
G2 X2.3974 Y0.7637 I-0.0009 J-0.6598
G2 X2.5885 Y0.6822 I-0.2386 J-0.8243
G2 X2.6051 Y0.6725 I-2.4699 J-4.2679
G2 X2.638 Y0.6533 I-9.8573 J-16.8813
G3 X2.7325 Y0.5989 I3.3634 J5.7344
G3 X2.7791 Y0.5736 I0.7925 J1.4034
G3 X2.7891 Y0.5692 I0.0369 J0.0706
G3 X2.7984 Y0.5666 I0.0228 J0.0635
G3 X2.8005 Y0.5663 I0.0055 J0.027
G3 X2.9052 Y0.6137 I-2.3036 J5.2233
G3 X3.1329 Y0.7211 I-10.3292 J22.1994
G2 X3.1392 Y0.7237 I0.0269 J-0.0564
G3 X3.1444 Y0.726 I-0.0111 J0.0317
G3 X3.1411 Y0.7278 I-0.0138 J-0.0225
G2 X3.134 Y0.7314 I0.0247 J0.0574
G3 X2.8668 Y0.8877 I-14.5605 J-24.5756
G3 X2.7346 Y0.9622 I-3.4572 J-5.9821
G3 X2.4612 Y1.0725 I-0.6001 J-1.0934
G3 X2.2087 Y1.1055 I-0.2476 J-0.9124
G3 X1.9567 Y1.07 I0.0049 J-0.9468
G3 X1.684 Y0.9571 I0.3403 J-1.2071
G3 X1.5237 Y0.8662 I8.9404 J-15.9608

(pocket 5)
G0 Z0.2
G0 X2.5543 Y3.5466
G1 Z-0.0625 F10
G2 X2.5532 Y3.9731 I558.3264 J1.6196 F40
G3 X2.553 Y4.068 I-1839.2191 J-3.9306
G2 X2.5369 Y4.0707 I11.8324 J72.18
G2 X2.5366 Y3.9938 I-132.2583 J0.4358
G3 X2.5363 Y3.819 I45.0919 J-0.1748
G3 X2.5372 Y3.5305 I45.0923 J0
G3 X2.541 Y3.3048 I10.856 J0.0695
G3 X2.5859 Y2.9491 I1.8232 J0.0495
G3 X2.6879 Y2.6552 I1.379 J0.3143
G3 X2.8574 Y2.3866 I1.2136 J0.5779
G3 X3.0985 Y2.1498 I1.1649 J0.9445
G3 X3.217 Y2.062 I1.7207 J2.2003
G3 X3.3756 Y1.9558 I2.61 J3.7275
G3 X3.4741 Y1.8943 I3.0092 J4.7059
G3 X3.6825 Y1.7685 I12.4478 J20.3878
G2 X3.7517 Y1.7271 I-19.9837 J-33.4932
G2 X3.7595 Y1.749 I30.7291 J-10.8821
G2 X3.7358 Y1.7625 I11.121 J19.4622
G2 X3.5885 Y1.8474 I16.214 J28.2954
G2 X3.4833 Y1.9086 I20.0337 J34.5423
G2 X3.3208 Y2.0037 I48.3743 J82.825
G2 X3.1537 Y2.1162 I0.8253 J1.4066
G2 X3.0068 Y2.2448 I0.9217 J1.202
G2 X2.8762 Y2.3931 I1.0589 J1.0636
G2 X2.7642 Y2.5599 I1.2388 J0.9532
G2 X2.6728 Y2.7436 I1.3538 J0.7882
G2 X2.6077 Y2.9342 I1.3841 J0.579
G2 X2.5689 Y3.1294 I1.4627 J0.392
G2 X2.5551 Y3.3345 I1.6212 J0.2124
G2 X2.5543 Y3.5466 I137.969 J0.6123
G1 X2.6043 Y3.5468 F40
G2 X2.6032 Y3.9732 I558.2764 J1.6195 F40
G3 X2.6029 Y4.1096 I-1839.2691 J-3.9307
G1 X2.6029 Y4.1105
G2 X2.5354 Y4.1216 I11.7825 J72.1375
G3 X2.4871 Y4.1295 I-12.1919 J-74.2074
G2 X2.4866 Y3.994 I-132.2085 J0.3769
G3 X2.4863 Y3.819 I45.1419 J-0.175
G3 X2.4872 Y3.5301 I45.1423 J0
G3 X2.491 Y3.3034 I10.906 J0.0698
G3 X2.5371 Y2.938 I1.8732 J0.0509
G3 X2.6428 Y2.6337 I1.4278 J0.3254
G3 X2.8186 Y2.3551 I1.2587 J0.5994
G3 X3.0677 Y2.1104 I1.2037 J0.976
G3 X3.1884 Y2.0211 I1.7515 J2.2397
G3 X3.3487 Y1.9137 I2.6387 J3.7684
G3 X3.448 Y1.8517 I3.0361 J4.748
G3 X3.6568 Y1.7256 I12.4739 J20.4304
G2 X3.7785 Y1.6527 I-19.9581 J-33.4503
G2 X3.8206 Y1.7717 I30.7024 J-10.8077
G2 X3.7607 Y1.8059 I11.0598 J19.4395
G2 X3.6136 Y1.8907 I16.1892 J28.252
G2 X3.5085 Y1.9518 I20.0086 J34.499
G2 X3.3461 Y2.0469 I48.3491 J82.7818
G2 X3.1842 Y2.1559 I0.8 J1.3634
G2 X3.0421 Y2.2802 I0.8913 J1.1623
G2 X2.9159 Y2.4236 I1.0237 J1.0282
G2 X2.8074 Y2.5851 I1.1991 J0.9227
G2 X2.7189 Y2.7628 I1.3106 J0.763
G2 X2.656 Y2.9471 I1.338 J0.5597
G2 X2.6185 Y3.1359 I1.4144 J0.379
G2 X2.6051 Y3.3348 I1.5717 J0.2059
G2 X2.6043 Y3.5468 I137.919 J0.6121
G1 X2.6543 Y3.5469 F40
G2 X2.6532 Y3.9733 I558.2264 J1.6194 F40
G3 X2.6529 Y4.1097 I-1839.3191 J-3.9308
G3 X2.6528 Y4.153 I-472.6746 J-1.0452
G2 X2.6435 Y4.1546 I2.9111 J17.9325
G2 X2.5435 Y4.1709 I11.7419 J72.0934
G3 X2.4378 Y4.1882 I-12.2 J-74.2567
G1 X2.4372 Y4.1883
G2 X2.4371 Y4.1627 I-34.065 J0.063
G2 X2.4366 Y3.9942 I-132.1586 J0.3437
G3 X2.4363 Y3.819 I45.1919 J-0.1752
G3 X2.4372 Y3.5298 I45.1923 J0
G3 X2.441 Y3.3021 I10.956 J0.0701
G3 X2.4884 Y2.9269 I1.9232 J0.0523
G3 X2.5977 Y2.6122 I1.4765 J0.3365
G3 X2.7798 Y2.3236 I1.3038 J0.6209
G3 X3.0369 Y2.071 I1.2426 J1.0075
G3 X3.1597 Y1.9801 I1.7823 J2.2791
G3 X3.3218 Y1.8716 I2.6674 J3.8094
G3 X3.422 Y1.809 I3.063 J4.7901
G3 X3.6312 Y1.6827 I12.4999 J20.4731
G2 X3.7692 Y1.5999 I-19.9324 J-33.4073
G2 X3.8053 Y1.5781 I-5.2286 J-8.6814
G2 X3.8201 Y1.6203 I9.5588 J-3.3119
G2 X3.88 Y1.7893 I30.6608 J-10.7752
G3 X3.8818 Y1.7944 I-183.4477 J65.6088
G2 X3.7855 Y1.8493 I10.9986 J19.4168
G2 X3.6386 Y1.9339 I16.1643 J28.2086
G2 X3.5338 Y1.995 I19.9835 J34.4558
G2 X3.3714 Y2.09 I48.3239 J82.7386
G2 X3.2146 Y2.1956 I0.7747 J1.3203
G2 X3.0773 Y2.3156 I0.8609 J1.1226
G2 X2.9555 Y2.4541 I0.9884 J0.9928
G2 X2.8506 Y2.6102 I1.1595 J0.8922
G2 X2.765 Y2.7821 I1.2673 J0.7378
G2 X2.7043 Y2.9601 I1.2918 J0.5404
G2 X2.6681 Y3.1424 I1.3661 J0.3661
G2 X2.6551 Y3.335 I1.5221 J0.1995
G2 X2.6543 Y3.5469 I137.869 J0.6119
G1 X2.7043 Y3.5471 F40
G2 X2.7032 Y3.9734 I558.1764 J1.6192 F40
G3 X2.7029 Y4.1098 I-1839.3691 J-3.9309
G3 X2.7028 Y4.178 I-472.7246 J-1.0453
G1 X2.7022 Y4.1957
G1 X2.7014 Y4.1959
G2 X2.6515 Y4.2039 I2.8625 J17.8897
G2 X2.5516 Y4.2203 I11.7339 J72.0441
G3 X2.4458 Y4.2376 I-12.2081 J-74.3061
G3 X2.3921 Y4.2462 I-3.4273 J-21.0478
G2 X2.3873 Y4.2468 I0.0049 J0.0623
G2 X2.3871 Y4.1629 I-34.0151 J0.0045
G2 X2.3866 Y3.9944 I-132.1086 J0.3436
G3 X2.3863 Y3.819 I45.2419 J-0.1754
G3 X2.3872 Y3.5295 I45.2423 J0
G3 X2.391 Y3.3007 I11.006 J0.0704
G3 X2.4396 Y2.9158 I1.9731 J0.0536
G3 X2.5525 Y2.5907 I1.5253 J0.3476
G3 X2.7409 Y2.2921 I1.349 J0.6424
G3 X3.0061 Y2.0316 I1.2814 J1.039
G3 X3.131 Y1.9391 I1.8131 J2.3185
G3 X3.2948 Y1.8295 I2.696 J3.8503
G3 X3.3959 Y1.7663 I3.09 J4.8323
G3 X3.6056 Y1.6397 I12.526 J20.5158
G2 X3.7435 Y1.5571 I-19.9068 J-33.3644
G2 X3.8135 Y1.5145 I-5.2028 J-8.6386
G3 X3.8213 Y1.5099 I0.1826 J0.2985
G3 X3.8329 Y1.5033 I1.0301 J1.7862
G1 X3.8329 Y1.5036
G2 X3.8346 Y1.5093 I0.0608 J-0.0145
G2 X3.8672 Y1.6037 I9.5296 J-3.2431
G2 X3.927 Y1.7724 I30.6136 J-10.7586
G3 X3.9363 Y1.7984 I-183.4948 J65.6256
G3 X3.9409 Y1.8113 I-45.5519 J16.284
G3 X3.9425 Y1.8166 I-0.0409 J0.0146
G3 X3.9323 Y1.8233 I-0.0517 J-0.067
G2 X3.8104 Y1.8926 I10.9481 J19.3879
G2 X3.6637 Y1.9772 I16.1394 J28.1652
G2 X3.559 Y2.0382 I19.9584 J34.4125
G2 X3.3967 Y2.1331 I48.2986 J82.6955
G2 X3.245 Y2.2352 I0.7494 J1.2772
G2 X3.1126 Y2.3511 I0.8304 J1.0829
G2 X2.9951 Y2.4846 I0.9531 J0.9573
G2 X2.8938 Y2.6354 I1.1199 J0.8618
G2 X2.8112 Y2.8014 I1.2241 J0.7127
G2 X2.7526 Y2.973 I1.2457 J0.5211
G2 X2.7177 Y3.1489 I1.3178 J0.3531
G2 X2.7051 Y3.3352 I1.4725 J0.193
G2 X2.7043 Y3.5471 I137.819 J0.6117

(pocket 6)
G0 Z0.2
G0 X3.8294 Y2.4701
G1 Z-0.0625 F10
G3 X4.0607 Y2.3362 I36.8813 J63.4549 F40
G3 X4.0604 Y2.3542 I-5.5638 J-0.1036
G3 X4.0179 Y2.3792 I-5.7321 J-9.6977
G3 X3.8247 Y2.4917 I-23.0873 J-39.4523
G2 X3.7266 Y2.5485 I45.817 J79.1795
G2 X3.6773 Y2.5772 I11.558 J19.9172
G2 X3.4829 Y2.7246 I0.5111 J0.876
G2 X3.3442 Y2.9027 I0.5642 J0.5827
G2 X3.2598 Y3.1127 I0.7018 J0.4039
G2 X3.2305 Y3.3541 I0.9787 J0.2414
G1 X3.2305 Y3.3551
G2 X3.2305 Y3.3748 I5.1016 J-0.0057
G2 X3.2308 Y3.413 I19.7839 J-0.0987
G3 X3.2309 Y3.4579 I-6.4923 J0.0449
G3 X3.2307 Y3.5156 I-6.4925 J0
G3 X3.2134 Y3.5278 I-3.2512 J-4.5581
G3 X3.2134 Y3.493 I28.3189 J-0.0475
G3 X3.2134 Y3.49 I6.7356 J-0.003
G3 X3.2149 Y3.3446 I6.7356 J0
G3 X3.2511 Y3.0878 I1.0971 J0.0238
G3 X3.3333 Y2.8899 I0.7689 J0.2033
G3 X3.4652 Y2.7212 I0.688 J0.402
G3 X3.6714 Y2.5631 I0.7706 J0.7908
G3 X3.8294 Y2.4701 I9.2996 J15.6352
G1 X3.8043 Y2.4269 F40
G3 X4.1121 Y2.249 I36.9064 J63.4981 F40
G3 X4.1109 Y2.3291 I-24.1504 J-0.3347
G3 X4.1097 Y2.3831 I-5.614 J-0.0964
G3 X4.0432 Y2.4224 I-5.7814 J-9.7266
G3 X3.8497 Y2.535 I-23.1126 J-39.4955
G2 X3.7517 Y2.5917 I45.792 J79.1362
G2 X3.7025 Y2.6204 I11.5329 J19.8739
G2 X3.5177 Y2.7605 I0.4859 J0.8328
G2 X3.3875 Y2.9276 I0.5294 J0.5467
G2 X3.3084 Y3.1246 I0.6585 J0.379
G2 X3.2805 Y3.3541 I0.9302 J0.2294
G1 X3.2805 Y3.355
G2 X3.2805 Y3.3745 I5.0516 J-0.0057
G2 X3.2808 Y3.4126 I19.7339 J-0.0985
G3 X3.2809 Y3.4579 I-6.5423 J0.0453
G3 X3.2806 Y3.5202 I-6.5425 J0
G3 X3.2803 Y3.5415 I-1.5096 J-0.0144
G3 X3.224 Y3.5815 I-3.3008 J-4.584
G3 X3.1637 Y3.6237 I-14.1031 J-20.0994
G3 X3.1634 Y3.493 I28.3685 J-0.1434
G3 X3.1634 Y3.49 I6.7856 J-0.0031
G3 X3.1649 Y3.3435 I6.7856 J0
G3 X3.2028 Y3.075 I1.1471 J0.0248
G3 X3.2902 Y2.8647 I0.8173 J0.2161
G3 X3.4303 Y2.6854 I0.7311 J0.4272
G3 X3.6458 Y2.5201 I0.8055 J0.8266
G3 X3.8043 Y2.4269 I9.3251 J15.6782
G1 X3.7792 Y2.3837 F40
G3 X4.0999 Y2.1984 I36.9315 J63.5414 F40
G2 X4.1632 Y2.162 I-159.9738 J-278.4587
G3 X4.1609 Y2.33 I-24.2015 J-0.2477
G3 X4.1589 Y2.412 I-5.664 J-0.0973
G3 X4.0684 Y2.4655 I-5.8306 J-9.7555
G3 X3.8747 Y2.5782 I-23.1378 J-39.5386
G2 X3.7768 Y2.635 I45.7669 J79.0929
G2 X3.7277 Y2.6636 I11.5078 J19.8307
G2 X3.5525 Y2.7964 I0.4607 J0.7896
G2 X3.4309 Y2.9525 I0.4946 J0.5108
G2 X3.3569 Y3.1366 I0.6151 J0.354
G2 X3.3305 Y3.3541 I0.8816 J0.2174
G1 X3.3305 Y3.3549
G2 X3.3305 Y3.3743 I5.0016 J-0.0056
G2 X3.3308 Y3.4123 I19.6839 J-0.0982
G3 X3.3309 Y3.4579 I-6.5923 J0.0456
G3 X3.3306 Y3.5207 I-6.5925 J0
G3 X3.3295 Y3.5676 I-1.5596 J-0.0149
G3 X3.2527 Y3.6224 I-3.35 J-4.6102
G3 X3.1144 Y3.7188 I-14.1318 J-20.1403
G3 X3.1134 Y3.4931 I28.4179 J-0.2385
G3 X3.1134 Y3.49 I6.8356 J-0.0031
G3 X3.115 Y3.3424 I6.8356 J0
G3 X3.1545 Y3.0623 I1.197 J0.0259
G3 X3.247 Y2.8395 I0.8656 J0.2289
G3 X3.3954 Y2.6496 I0.7743 J0.4524
G3 X3.6202 Y2.4771 I0.8404 J0.8624
G3 X3.7792 Y2.3837 I9.3507 J15.7211
G1 X3.754 Y2.3404 F40
G3 X4.075 Y2.155 I36.9567 J63.5846 F40
G2 X4.1487 Y2.1126 I-159.9489 J-278.4153
G2 X4.1795 Y2.0949 I-40.0275 J-69.6311
G1 X4.2027 Y2.0822
G2 X4.2079 Y2.0789 I-0.0301 J-0.0548
G3 X4.2121 Y2.0766 I0.0132 J0.0191
G2 X4.2122 Y2.0778 I0.0624 J-0.0043
G1 X4.2138 Y2.0961
G2 X4.2137 Y2.0972 I2348.6298 J17.7105
G3 X4.2109 Y2.3308 I-24.252 J-0.1829
G3 X4.2081 Y2.4359 I-5.714 J-0.0981
G3 X4.2067 Y2.4376 I-0.0248 J-0.0188
G3 X4.1985 Y2.4456 I-0.0565 J-0.0495
G3 X4.1898 Y2.4518 I-0.0432 J-0.0515
G3 X4.0937 Y2.5087 I-5.8616 J-9.7953
G3 X3.8998 Y2.6215 I-23.1631 J-39.5818
G2 X3.8019 Y2.6782 I45.7419 J79.0496
G2 X3.7529 Y2.7067 I11.4827 J19.7874
G2 X3.5873 Y2.8323 I0.4355 J0.7464
G2 X3.4742 Y2.9775 I0.4599 J0.4749
G2 X3.4055 Y3.1486 I0.5718 J0.3291
G2 X3.3805 Y3.3541 I0.8331 J0.2055
G1 X3.3805 Y3.3549
G2 X3.3805 Y3.374 I4.9516 J-0.0056
G2 X3.3808 Y3.4119 I19.6339 J-0.098
G3 X3.3809 Y3.4579 I-6.6423 J0.046
G3 X3.3806 Y3.5212 I-6.6425 J0
G3 X3.3792 Y3.5742 I-1.6096 J-0.0153
G3 X3.3781 Y3.585 I-0.0797 J-0.0033
G3 X3.3757 Y3.5944 I-0.0664 J-0.012
G3 X3.3749 Y3.5964 I-0.0261 J-0.0087
G3 X3.2815 Y3.6634 I-3.3954 J-4.6389
G3 X3.0747 Y3.8069 I-14.1605 J-20.1812
G2 X3.0693 Y3.8111 I0.0354 J0.0515
G3 X3.0646 Y3.8144 I-0.0218 J-0.0254
G3 X3.0625 Y3.8156 I-0.0172 J-0.0287
G3 X3.0613 Y3.816 I-0.002 J-0.004
G3 X3.063 Y3.816 I0.0008 J0.0047
G1 X3.0639 Y3.8163
G1 X3.0643 Y3.8167
G3 X3.065 Y3.8178 I-0.003 J0.0027
G1 X3.0648 Y3.8169
G3 X3.0646 Y3.8144 I0.0262 J-0.0032
G1 X3.0646 Y3.8137
G3 X3.0648 Y3.8106 I0.0264 J0
G2 X3.0652 Y3.8034 I-0.0621 J-0.0073
G1 X3.0652 Y3.8027
G3 X3.0634 Y3.4931 I28.4671 J-0.3224
G3 X3.0634 Y3.49 I6.8856 J-0.0031
G3 X3.065 Y3.3414 I6.8856 J0
G3 X3.1061 Y3.0495 I1.247 J0.027
G3 X3.2038 Y2.8143 I0.9139 J0.2417
G3 X3.3606 Y2.6138 I0.8175 J0.4776
G3 X3.5947 Y2.4341 I0.8753 J0.8982
G3 X3.754 Y2.3404 I9.3762 J15.7641

(profile 7)
G0 Z0.2
G0 X0.9683 Y4.1408
G1 Z-0.05 F10
G3 X0.7619 Y3.9839 I1.3768 J-2.0258 F40
G3 X0.6131 Y3.847 I1.5833 J-1.8689
G3 X0.5797 Y3.8129 I1.732 J-1.732
G3 X0.3193 Y3.4918 I1.7654 J-1.6979
G3 X0.1163 Y3.1156 I1.7341 J-1.1786
G3 X-0.0061 Y2.7061 I1.9371 J-0.8024
G3 X-0.0495 Y2.2472 I2.406 J-0.4589
G3 X-0.0061 Y1.7882 I2.4494 J0
G3 X0.1163 Y1.3787 I2.0596 J0.3929
G3 X0.3193 Y1.0025 I1.9371 J0.8024
G3 X0.6131 Y0.6473 I2.0258 J1.3768
G3 X0.9683 Y0.3535 I1.732 J1.732
G3 X1.3445 Y0.1505 I1.1786 J1.7341
G3 X1.754 Y0.028 I0.8024 J1.9371
G3 X2.213 Y-0.0153 I0.4589 J2.406
G3 X2.6719 Y0.028 I0 J2.4494
G3 X3.0814 Y0.1505 I-0.3929 J2.0596
G3 X3.4576 Y0.3535 I-0.8024 J1.9371
G3 X3.8128 Y0.6473 I-1.3768 J2.0258
G3 X3.8506 Y0.6859 I-1.732 J1.732
G3 X4.0139 Y0.8751 I-1.7698 J1.6934
G3 X4.1066 Y1.0025 I-1.9331 J1.5042
G3 X4.3096 Y1.3787 I-1.7341 J1.1786
G3 X4.4321 Y1.7882 I-1.9371 J0.8024
G3 X4.4755 Y2.2472 I-2.406 J0.4589
G3 X4.4321 Y2.7061 I-2.4494 J0
G3 X4.3096 Y3.1156 I-2.0596 J-0.3929
G3 X4.1066 Y3.4918 I-1.9371 J-0.8024
G3 X3.8128 Y3.847 I-2.0258 J-1.3768
G3 X3.4576 Y4.1408 I-1.732 J-1.732
G3 X3.0814 Y4.3438 I-1.1786 J-1.7341
G3 X2.6719 Y4.4663 I-0.8024 J-1.9371
G3 X2.213 Y4.5097 I-0.4589 J-2.406
G3 X1.754 Y4.4663 I0 J-2.4494
G3 X1.3445 Y4.3438 I0.3929 J-2.0596
G3 X0.9683 Y4.1408 I0.8024 J-1.9371
G1 Z-0.1 F10
G3 X0.7619 Y3.9839 I1.3768 J-2.0258 F40
G3 X0.6131 Y3.847 I1.5833 J-1.8689
G3 X0.5797 Y3.8129 I1.732 J-1.732
G3 X0.3193 Y3.4918 I1.7654 J-1.6979
G3 X0.1163 Y3.1156 I1.7341 J-1.1786
G3 X-0.0061 Y2.7061 I1.9371 J-0.8024
G3 X-0.0495 Y2.2472 I2.406 J-0.4589
G3 X-0.0061 Y1.7882 I2.4494 J0
G3 X0.1163 Y1.3787 I2.0596 J0.3929
G3 X0.3193 Y1.0025 I1.9371 J0.8024
G3 X0.6131 Y0.6473 I2.0258 J1.3768
G3 X0.9683 Y0.3535 I1.732 J1.732
G3 X1.3445 Y0.1505 I1.1786 J1.7341
G3 X1.754 Y0.028 I0.8024 J1.9371
G3 X2.213 Y-0.0153 I0.4589 J2.406
G3 X2.6719 Y0.028 I0 J2.4494
G3 X3.0814 Y0.1505 I-0.3929 J2.0596
G3 X3.4576 Y0.3535 I-0.8024 J1.9371
G3 X3.8128 Y0.6473 I-1.3768 J2.0258
G3 X3.8506 Y0.6859 I-1.732 J1.732
G3 X4.0139 Y0.8751 I-1.7698 J1.6934
G3 X4.1066 Y1.0025 I-1.9331 J1.5042
G3 X4.3096 Y1.3787 I-1.7341 J1.1786
G3 X4.4321 Y1.7882 I-1.9371 J0.8024
G3 X4.4755 Y2.2472 I-2.406 J0.4589
G3 X4.4321 Y2.7061 I-2.4494 J0
G3 X4.3096 Y3.1156 I-2.0596 J-0.3929
G3 X4.1066 Y3.4918 I-1.9371 J-0.8024
G3 X3.8128 Y3.847 I-2.0258 J-1.3768
G3 X3.4576 Y4.1408 I-1.732 J-1.732
G3 X3.0814 Y4.3438 I-1.1786 J-1.7341
G3 X2.6719 Y4.4663 I-0.8024 J-1.9371
G3 X2.213 Y4.5097 I-0.4589 J-2.406
G3 X1.754 Y4.4663 I0 J-2.4494
G3 X1.3445 Y4.3438 I0.3929 J-2.0596
G3 X0.9683 Y4.1408 I0.8024 J-1.9371
G1 Z-0.15 F10
G3 X0.7619 Y3.9839 I1.3768 J-2.0258 F40
G1 Z-0.125 F10
G3 X0.6131 Y3.847 I1.5833 J-1.8689 F40
G3 X0.5797 Y3.8129 I1.732 J-1.732
G1 Z-0.15 F10
G3 X0.3193 Y3.4918 I1.7654 J-1.6979 F40
G3 X0.1163 Y3.1156 I1.7341 J-1.1786
G3 X-0.0061 Y2.7061 I1.9371 J-0.8024
G3 X-0.0495 Y2.2472 I2.406 J-0.4589
G3 X-0.0061 Y1.7882 I2.4494 J0
G3 X0.1163 Y1.3787 I2.0596 J0.3929
G3 X0.3193 Y1.0025 I1.9371 J0.8024
G3 X0.6131 Y0.6473 I2.0258 J1.3768
G3 X0.9683 Y0.3535 I1.732 J1.732
G3 X1.3445 Y0.1505 I1.1786 J1.7341
G3 X1.754 Y0.028 I0.8024 J1.9371
G3 X2.213 Y-0.0153 I0.4589 J2.406
G3 X2.6719 Y0.028 I0 J2.4494
G3 X3.0814 Y0.1505 I-0.3929 J2.0596
G3 X3.4576 Y0.3535 I-0.8024 J1.9371
G3 X3.8128 Y0.6473 I-1.3768 J2.0258
G3 X3.8506 Y0.6859 I-1.732 J1.732
G1 Z-0.125 F10
G3 X4.0139 Y0.8751 I-1.7698 J1.6934 F40
G1 Z-0.15 F10
G3 X4.1066 Y1.0025 I-1.9331 J1.5042 F40
G3 X4.3096 Y1.3787 I-1.7341 J1.1786
G3 X4.4321 Y1.7882 I-1.9371 J0.8024
G3 X4.4755 Y2.2472 I-2.406 J0.4589
G3 X4.4321 Y2.7061 I-2.4494 J0
G3 X4.3096 Y3.1156 I-2.0596 J-0.3929
G3 X4.1066 Y3.4918 I-1.9371 J-0.8024
G3 X3.8128 Y3.847 I-2.0258 J-1.3768
G3 X3.4576 Y4.1408 I-1.732 J-1.732
G3 X3.0814 Y4.3438 I-1.1786 J-1.7341
G3 X2.6719 Y4.4663 I-0.8024 J-1.9371
G3 X2.213 Y4.5097 I-0.4589 J-2.406
G3 X1.754 Y4.4663 I0 J-2.4494
G3 X1.3445 Y4.3438 I0.3929 J-2.0596
G3 X0.9683 Y4.1408 I0.8024 J-1.9371
G1 Z-0.2 F10
G3 X0.7619 Y3.9839 I1.3768 J-2.0258 F40
G1 Z-0.125 F10
G3 X0.6131 Y3.847 I1.5833 J-1.8689 F40
G3 X0.5797 Y3.8129 I1.732 J-1.732
G1 Z-0.2 F10
G3 X0.3193 Y3.4918 I1.7654 J-1.6979 F40
G3 X0.1163 Y3.1156 I1.7341 J-1.1786
G3 X-0.0061 Y2.7061 I1.9371 J-0.8024
G3 X-0.0495 Y2.2472 I2.406 J-0.4589
G3 X-0.0061 Y1.7882 I2.4494 J0
G3 X0.1163 Y1.3787 I2.0596 J0.3929
G3 X0.3193 Y1.0025 I1.9371 J0.8024
G3 X0.6131 Y0.6473 I2.0258 J1.3768
G3 X0.9683 Y0.3535 I1.732 J1.732
G3 X1.3445 Y0.1505 I1.1786 J1.7341
G3 X1.754 Y0.028 I0.8024 J1.9371
G3 X2.213 Y-0.0153 I0.4589 J2.406
G3 X2.6719 Y0.028 I0 J2.4494
G3 X3.0814 Y0.1505 I-0.3929 J2.0596
G3 X3.4576 Y0.3535 I-0.8024 J1.9371
G3 X3.8128 Y0.6473 I-1.3768 J2.0258
G3 X3.8506 Y0.6859 I-1.732 J1.732
G1 Z-0.125 F10
G3 X4.0139 Y0.8751 I-1.7698 J1.6934 F40
G1 Z-0.2 F10
G3 X4.1066 Y1.0025 I-1.9331 J1.5042 F40
G3 X4.3096 Y1.3787 I-1.7341 J1.1786
G3 X4.4321 Y1.7882 I-1.9371 J0.8024
G3 X4.4755 Y2.2472 I-2.406 J0.4589
G3 X4.4321 Y2.7061 I-2.4494 J0
G3 X4.3096 Y3.1156 I-2.0596 J-0.3929
G3 X4.1066 Y3.4918 I-1.9371 J-0.8024
G3 X3.8128 Y3.847 I-2.0258 J-1.3768
G3 X3.4576 Y4.1408 I-1.732 J-1.732
G3 X3.0814 Y4.3438 I-1.1786 J-1.7341
G3 X2.6719 Y4.4663 I-0.8024 J-1.9371
G3 X2.213 Y4.5097 I-0.4589 J-2.406
G3 X1.754 Y4.4663 I0 J-2.4494
G3 X1.3445 Y4.3438 I0.3929 J-2.0596
G3 X0.9683 Y4.1408 I0.8024 J-1.9371
G1 Z-0.25 F10
G3 X0.7619 Y3.9839 I1.3768 J-2.0258 F40
G1 Z-0.125 F10
G3 X0.6131 Y3.847 I1.5833 J-1.8689 F40
G3 X0.5797 Y3.8129 I1.732 J-1.732
G1 Z-0.25 F10
G3 X0.3193 Y3.4918 I1.7654 J-1.6979 F40
G3 X0.1163 Y3.1156 I1.7341 J-1.1786
G3 X-0.0061 Y2.7061 I1.9371 J-0.8024
G3 X-0.0495 Y2.2472 I2.406 J-0.4589
G3 X-0.0061 Y1.7882 I2.4494 J0
G3 X0.1163 Y1.3787 I2.0596 J0.3929
G3 X0.3193 Y1.0025 I1.9371 J0.8024
G3 X0.6131 Y0.6473 I2.0258 J1.3768
G3 X0.9683 Y0.3535 I1.732 J1.732
G3 X1.3445 Y0.1505 I1.1786 J1.7341
G3 X1.754 Y0.028 I0.8024 J1.9371
G3 X2.213 Y-0.0153 I0.4589 J2.406
G3 X2.6719 Y0.028 I0 J2.4494
G3 X3.0814 Y0.1505 I-0.3929 J2.0596
G3 X3.4576 Y0.3535 I-0.8024 J1.9371
G3 X3.8128 Y0.6473 I-1.3768 J2.0258
G3 X3.8506 Y0.6859 I-1.732 J1.732
G1 Z-0.125 F10
G3 X4.0139 Y0.8751 I-1.7698 J1.6934 F40
G1 Z-0.25 F10
G3 X4.1066 Y1.0025 I-1.9331 J1.5042 F40
G3 X4.3096 Y1.3787 I-1.7341 J1.1786
G3 X4.4321 Y1.7882 I-1.9371 J0.8024
G3 X4.4755 Y2.2472 I-2.406 J0.4589
G3 X4.4321 Y2.7061 I-2.4494 J0
G3 X4.3096 Y3.1156 I-2.0596 J-0.3929
G3 X4.1066 Y3.4918 I-1.9371 J-0.8024
G3 X3.8128 Y3.847 I-2.0258 J-1.3768
G3 X3.4576 Y4.1408 I-1.732 J-1.732
G3 X3.0814 Y4.3438 I-1.1786 J-1.7341
G3 X2.6719 Y4.4663 I-0.8024 J-1.9371
G3 X2.213 Y4.5097 I-0.4589 J-2.406
G3 X1.754 Y4.4663 I0 J-2.4494
G3 X1.3445 Y4.3438 I0.3929 J-2.0596
G3 X0.9683 Y4.1408 I0.8024 J-1.9371
G1 Z-0.3 F10
G3 X0.7619 Y3.9839 I1.3768 J-2.0258 F40
G1 Z-0.125 F10
G3 X0.6131 Y3.847 I1.5833 J-1.8689 F40
G3 X0.5797 Y3.8129 I1.732 J-1.732
G1 Z-0.3 F10
G3 X0.3193 Y3.4918 I1.7654 J-1.6979 F40
G3 X0.1163 Y3.1156 I1.7341 J-1.1786
G3 X-0.0061 Y2.7061 I1.9371 J-0.8024
G3 X-0.0495 Y2.2472 I2.406 J-0.4589
G3 X-0.0061 Y1.7882 I2.4494 J0
G3 X0.1163 Y1.3787 I2.0596 J0.3929
G3 X0.3193 Y1.0025 I1.9371 J0.8024
G3 X0.6131 Y0.6473 I2.0258 J1.3768
G3 X0.9683 Y0.3535 I1.732 J1.732
G3 X1.3445 Y0.1505 I1.1786 J1.7341
G3 X1.754 Y0.028 I0.8024 J1.9371
G3 X2.213 Y-0.0153 I0.4589 J2.406
G3 X2.6719 Y0.028 I0 J2.4494
G3 X3.0814 Y0.1505 I-0.3929 J2.0596
G3 X3.4576 Y0.3535 I-0.8024 J1.9371
G3 X3.8128 Y0.6473 I-1.3768 J2.0258
G3 X3.8506 Y0.6859 I-1.732 J1.732
G1 Z-0.125 F10
G3 X4.0139 Y0.8751 I-1.7698 J1.6934 F40
G1 Z-0.3 F10
G3 X4.1066 Y1.0025 I-1.9331 J1.5042 F40
G3 X4.3096 Y1.3787 I-1.7341 J1.1786
G3 X4.4321 Y1.7882 I-1.9371 J0.8024
G3 X4.4755 Y2.2472 I-2.406 J0.4589
G3 X4.4321 Y2.7061 I-2.4494 J0
G3 X4.3096 Y3.1156 I-2.0596 J-0.3929
G3 X4.1066 Y3.4918 I-1.9371 J-0.8024
G3 X3.8128 Y3.847 I-2.0258 J-1.3768
G3 X3.4576 Y4.1408 I-1.732 J-1.732
G3 X3.0814 Y4.3438 I-1.1786 J-1.7341
G3 X2.6719 Y4.4663 I-0.8024 J-1.9371
G3 X2.213 Y4.5097 I-0.4589 J-2.406
G3 X1.754 Y4.4663 I0 J-2.4494
G3 X1.3445 Y4.3438 I0.3929 J-2.0596
G3 X0.9683 Y4.1408 I0.8024 J-1.9371
G1 Z-0.35 F10
G3 X0.7619 Y3.9839 I1.3768 J-2.0258 F40
G1 Z-0.125 F10
G3 X0.6131 Y3.847 I1.5833 J-1.8689 F40
G3 X0.5797 Y3.8129 I1.732 J-1.732
G1 Z-0.35 F10
G3 X0.3193 Y3.4918 I1.7654 J-1.6979 F40
G3 X0.1163 Y3.1156 I1.7341 J-1.1786
G3 X-0.0061 Y2.7061 I1.9371 J-0.8024
G3 X-0.0495 Y2.2472 I2.406 J-0.4589
G3 X-0.0061 Y1.7882 I2.4494 J0
G3 X0.1163 Y1.3787 I2.0596 J0.3929
G3 X0.3193 Y1.0025 I1.9371 J0.8024
G3 X0.6131 Y0.6473 I2.0258 J1.3768
G3 X0.9683 Y0.3535 I1.732 J1.732
G3 X1.3445 Y0.1505 I1.1786 J1.7341
G3 X1.754 Y0.028 I0.8024 J1.9371
G3 X2.213 Y-0.0153 I0.4589 J2.406
G3 X2.6719 Y0.028 I0 J2.4494
G3 X3.0814 Y0.1505 I-0.3929 J2.0596
G3 X3.4576 Y0.3535 I-0.8024 J1.9371
G3 X3.8128 Y0.6473 I-1.3768 J2.0258
G3 X3.8506 Y0.6859 I-1.732 J1.732
G1 Z-0.125 F10
G3 X4.0139 Y0.8751 I-1.7698 J1.6934 F40
G1 Z-0.35 F10
G3 X4.1066 Y1.0025 I-1.9331 J1.5042 F40
G3 X4.3096 Y1.3787 I-1.7341 J1.1786
G3 X4.4321 Y1.7882 I-1.9371 J0.8024
G3 X4.4755 Y2.2472 I-2.406 J0.4589
G3 X4.4321 Y2.7061 I-2.4494 J0
G3 X4.3096 Y3.1156 I-2.0596 J-0.3929
G3 X4.1066 Y3.4918 I-1.9371 J-0.8024
G3 X3.8128 Y3.847 I-2.0258 J-1.3768
G3 X3.4576 Y4.1408 I-1.732 J-1.732
G3 X3.0814 Y4.3438 I-1.1786 J-1.7341
G3 X2.6719 Y4.4663 I-0.8024 J-1.9371
G3 X2.213 Y4.5097 I-0.4589 J-2.406
G3 X1.754 Y4.4663 I0 J-2.4494
G3 X1.3445 Y4.3438 I0.3929 J-2.0596
G3 X0.9683 Y4.1408 I0.8024 J-1.9371
G1 Z-0.375 F10
G3 X0.7619 Y3.9839 I1.3768 J-2.0258 F40
G1 Z-0.125 F10
G3 X0.6131 Y3.847 I1.5833 J-1.8689 F40
G3 X0.5797 Y3.8129 I1.732 J-1.732
G1 Z-0.375 F10
G3 X0.3193 Y3.4918 I1.7654 J-1.6979 F40
G3 X0.1163 Y3.1156 I1.7341 J-1.1786
G3 X-0.0061 Y2.7061 I1.9371 J-0.8024
G3 X-0.0495 Y2.2472 I2.406 J-0.4589
G3 X-0.0061 Y1.7882 I2.4494 J0
G3 X0.1163 Y1.3787 I2.0596 J0.3929
G3 X0.3193 Y1.0025 I1.9371 J0.8024
G3 X0.6131 Y0.6473 I2.0258 J1.3768
G3 X0.9683 Y0.3535 I1.732 J1.732
G3 X1.3445 Y0.1505 I1.1786 J1.7341
G3 X1.754 Y0.028 I0.8024 J1.9371
G3 X2.213 Y-0.0153 I0.4589 J2.406
G3 X2.6719 Y0.028 I0 J2.4494
G3 X3.0814 Y0.1505 I-0.3929 J2.0596
G3 X3.4576 Y0.3535 I-0.8024 J1.9371
G3 X3.8128 Y0.6473 I-1.3768 J2.0258
G3 X3.8506 Y0.6859 I-1.732 J1.732
G1 Z-0.125 F10
G3 X4.0139 Y0.8751 I-1.7698 J1.6934 F40
G1 Z-0.375 F10
G3 X4.1066 Y1.0025 I-1.9331 J1.5042 F40
G3 X4.3096 Y1.3787 I-1.7341 J1.1786
G3 X4.4321 Y1.7882 I-1.9371 J0.8024
G3 X4.4755 Y2.2472 I-2.406 J0.4589
G3 X4.4321 Y2.7061 I-2.4494 J0
G3 X4.3096 Y3.1156 I-2.0596 J-0.3929
G3 X4.1066 Y3.4918 I-1.9371 J-0.8024
G3 X3.8128 Y3.847 I-2.0258 J-1.3768
G3 X3.4576 Y4.1408 I-1.732 J-1.732
G3 X3.0814 Y4.3438 I-1.1786 J-1.7341
G3 X2.6719 Y4.4663 I-0.8024 J-1.9371
G3 X2.213 Y4.5097 I-0.4589 J-2.406
G3 X1.754 Y4.4663 I0 J-2.4494
G3 X1.3445 Y4.3438 I0.3929 J-2.0596
G3 X0.9683 Y4.1408 I0.8024 J-1.9371
G0 Z0.2
M5
M30
